assets/Man facepalming/Default/Flat/man_facepalming_flat_default.svg

<svg width="32" height="32" viewBox="0 0 32 32" fill="none" xmlns="http://www.w3.org/2000/svg">
<path d="M22.59 4.97485L22.06 4.70485C21.68 4.51485 21.34 4.26485 21.04 3.96485L20 2.92485C19.22 2.14485 18.06 1.88485 17.02 2.24485C16.34 2.48485 15.61 2.48485 14.93 2.24485C14.01 1.79485 12.9 1.97485 12.18 2.70485L10.9 3.97485C10.6 4.27485 10.26 4.52485 9.88005 4.70485L9.35005 4.97485C8.36005 5.46485 7.82005 6.54485 8.02005 7.62485L8.73005 11.5148C8.80005 11.9048 9.13005 12.1848 9.53005 12.1948C8.97529 4.49753 22.9049 4.65564 22.42 12.2048C22.8 12.1848 23.13 11.9048 23.2 11.5248L23.91 7.63485C24.12 6.54485 23.58 5.46485 22.59 4.97485Z" fill="#F1A11E"/>
<path d="M6 29.6148C6 24.2248 10.47 19.8548 15.99 19.8448C17.9966 19.8448 19.8645 20.4237 21.4294 21.4194L19.326 30.0048H6V29.6148Z" fill="#00A6ED"/>
<path d="M15.98 24.7549C14.52 24.7549 13.34 23.5749 13.34 22.1149V18.9949C13.34 17.5349 14.52 16.3549 15.98 16.3549C17.44 16.3549 18.62 17.5349 18.62 18.9949V22.1149C18.62 23.5749 17.44 24.7549 15.98 24.7549Z" fill="#FCB100"/>
<path d="M22.02 15.0049C23.1577 15.0049 24.08 14.0826 24.08 12.9449C24.08 11.8072 23.1577 10.8849 22.02 10.8849C20.8823 10.8849 19.96 11.8072 19.96 12.9449C19.96 14.0826 20.8823 15.0049 22.02 15.0049Z" fill="#FDBB11"/>
<path d="M9.94 15.0049C11.0777 15.0049 12 14.0826 12 12.9449C12 11.8072 11.0777 10.8849 9.94 10.8849C8.8023 10.8849 7.88 11.8072 7.88 12.9449C7.88 14.0826 8.8023 15.0049 9.94 15.0049Z" fill="#FDBB11"/>
<path d="M9.53002 12.1948C9.53002 12.1948 9.45009 11.0848 9.41009 10.3748C9.39009 10.0248 9.53009 9.66481 9.80009 9.42481L10.0301 9.21481C10.3501 8.93481 10.5301 8.52481 10.5301 8.09481V7.00481C10.5301 6.69481 10.7401 6.42481 11.0401 6.35481C11.8501 6.14481 13.5801 5.80481 15.9701 5.80481C18.3601 5.80481 20.0901 6.14481 20.8901 6.35481C21.1901 6.42481 21.4001 6.69481 21.4001 7.00481V8.09481C21.4001 8.52481 21.5801 8.92481 21.9001 9.21481L22.1501 9.43481C22.4201 9.67481 22.5701 10.0348 22.5401 10.4048C22.4901 11.1148 22.4304 12.2042 22.4304 12.2042L22.08 17.2248C21.86 19.4348 20.13 21.0048 18.01 21.0048H13.95C11.83 21.0048 10.1 19.4348 9.87999 17.2248L9.53002 12.1948Z" fill="#FFC83D"/>
<path d="M19.8801 10.6148C20.0101 10.7048 20.1501 10.7548 20.3001 10.7548C20.5101 10.7548 20.7101 10.6648 20.8401 10.4848C21.0701 10.1848 21.0101 9.74479 20.7101 9.51479L20.7092 9.51411C20.6567 9.47466 19.6203 8.69594 18.1101 8.87478C17.7401 8.92478 17.4701 9.26478 17.5101 9.64478C17.5601 10.0148 17.9001 10.2848 18.2801 10.2448C19.2201 10.1348 19.8401 10.5848 19.8801 10.6148Z" fill="#D37034"/>
<path d="M11.11 10.4848C11.24 10.6648 11.45 10.7548 11.66 10.7548C11.8 10.7548 11.95 10.7048 12.07 10.6148C12.1342 10.5704 12.7585 10.1384 13.67 10.2548C14.05 10.3048 14.4 10.0348 14.44 9.65479C14.49 9.27479 14.22 8.92479 13.84 8.88479C12.3327 8.70512 11.2838 9.49193 11.2402 9.52462C10.9402 9.75462 10.88 10.1848 11.11 10.4848Z" fill="#D37034"/>
<path fill-rule="evenodd" clip-rule="evenodd" d="M14.8663 12.1211C15.023 12.2351 15.0577 12.4545 14.9437 12.6112C14.5586 13.1408 13.9337 13.4757 13.23 13.4757C12.5343 13.4757 11.9123 13.1394 11.5193 12.6153C11.403 12.4603 11.4344 12.2404 11.5895 12.1241C11.7445 12.0079 11.9644 12.0393 12.0806 12.1943C12.3476 12.5503 12.7657 12.774 13.23 12.774C13.7062 12.774 14.1214 12.5489 14.3762 12.1985C14.4902 12.0418 14.7096 12.0071 14.8663 12.1211Z" fill="#D37034"/>
<path d="M18.13 17.9149C17.67 17.2149 16.88 16.7449 15.98 16.7449C15.08 16.7449 14.29 17.2149 13.83 17.9149C13.73 18.0649 13.87 18.2449 14.03 18.2249H17.92C18.08 18.2649 18.23 18.0749 18.13 17.9149Z" fill="#990839"/>
<path d="M23.19 18.0548C23.26 17.3048 23.42 16.5648 23.69 15.8648C24.09 14.8448 24.52 14.0648 24.52 14.0548C24.78 13.5948 24.61 13.0048 24.15 12.7448C23.69 12.4848 23.1 12.6548 22.84 13.1148C22.82 13.1548 22.56 13.6248 22.25 14.3148C22.21 14.4148 22.07 14.4048 22.04 14.3048C21.57 12.8648 21.31 11.0548 21.25 10.3048C21.21 9.8248 20.78 9.4648 20.3 9.5148C19.82 9.5548 19.46 9.9848 19.51 10.4648C19.51 10.5048 19.6 11.4748 19.83 12.6748C19.86 12.8148 19.88 12.9448 19.91 13.0748C19.92 13.1148 19.89 13.1548 19.85 13.1548C19.82 13.1548 19.79 13.1348 19.78 13.1048C19.3 11.4648 19.08 10.0548 19.08 10.0248C19.01 9.5448 18.56 9.2148 18.08 9.2948C17.6 9.3648 17.27 9.8148 17.35 10.2948C17.36 10.3648 17.65 11.8248 18 13.2048C18.01 13.2348 17.96 13.2548 17.95 13.2248L17.15 11.2048C16.95 10.7648 16.44 10.5548 16 10.7348C15.55 10.9248 15.35 11.4648 15.54 11.9148L16.49 14.1148C16.52 14.1748 16.43 14.2248 16.39 14.1648C16.06 13.5348 15.83 13.0948 15.83 13.0948C15.61 12.6648 15.08 12.5048 14.65 12.7248C14.22 12.9448 14.06 13.4748 14.28 13.9048C15.27 15.7948 16.88 18.8748 17.08 19.2848C17.09 19.3048 17.1 19.3148 17.11 19.3248C17.45 19.9548 18 20.4748 18.71 20.7648C20.35 21.4548 22.25 20.6848 22.95 19.0448C23.08 18.7148 23.16 18.3848 23.19 18.0548Z" fill="#D67D00"/>
<path d="M23.35 21.3247L18.55 22.6147L18.24 21.4647C18.17 21.2147 18.32 20.9647 18.57 20.8947L22.47 19.8547C22.72 19.7847 22.97 19.9347 23.04 20.1847L23.35 21.3247Z" fill="#0092E7"/>
<path d="M19.28 30H26.94L24.61 21.2848C24.5 20.8648 24.06 20.6148 23.64 20.7248L18.03 22.2248C17.61 22.3348 17.36 22.7748 17.47 23.1948L19.28 30Z" fill="#3BC6F6"/>
</svg>

<svg xmlns="http://www.w3.org/2000/svg" width="32" height="32" fill="none"><path fill="#F1A11E" d="m22.59 4.975-.53-.27c-.38-.19-.72-.44-1.02-.74L20 2.925a2.883 2.883 0 0 0-2.98-.68c-.68.24-1.41.24-2.09 0a2.39 2.39 0 0 0-2.75.46l-1.28 1.27c-.3.3-.64.55-1.02.73l-.53.27c-.99.49-1.53 1.57-1.33 2.65l.71 3.89c.07.39.4.67.8.68-.555-7.697 13.375-7.54 12.89.01.38-.02.71-.3.78-.68l.71-3.89c.21-1.09-.33-2.17-1.32-2.66Z"/><path fill="#00A6ED" d="M6 29.615c0-5.39 4.47-9.76 9.99-9.77 2.007 0 3.874.579 5.44 1.574l-2.104 8.586H6v-.39Z"/><path fill="#FCB100" d="M15.98 24.755c-1.46 0-2.64-1.18-2.64-2.64v-3.12c0-1.46 1.18-2.64 2.64-2.64 1.46 0 2.64 1.18 2.64 2.64v3.12c0 1.46-1.18 2.64-2.64 2.64Z"/><path fill="#FDBB11" d="M22.02 15.005a2.06 2.06 0 1 0 0-4.12 2.06 2.06 0 0 0 0 4.12ZM9.94 15.005a2.06 2.06 0 1 0 0-4.12 2.06 2.06 0 0 0 0 4.12Z"/><path fill="#FFC83D" d="M9.53 12.195s-.08-1.11-.12-1.82c-.02-.35.12-.71.39-.95l.23-.21c.32-.28.5-.69.5-1.12v-1.09c0-.31.21-.58.51-.65.81-.21 2.54-.55 4.93-.55 2.39 0 4.12.34 4.92.55.3.07.51.34.51.65v1.09c0 .43.18.83.5 1.12l.25.22c.27.24.42.6.39.97-.05.71-.11 1.8-.11 1.8l-.35 5.02c-.22 2.21-1.95 3.78-4.07 3.78h-4.06c-2.12 0-3.85-1.57-4.07-3.78l-.35-5.03Z"/><path fill="#D37034" d="M19.88 10.615c.13.09.27.14.42.14.21 0 .41-.09.54-.27.23-.3.17-.74-.13-.97-.053-.04-1.09-.82-2.6-.64-.37.05-.64.39-.6.77.05.37.39.64.77.6.94-.11 1.56.34 1.6.37ZM11.11 10.485c.13.18.34.27.55.27a.7.7 0 0 0 .41-.14c.064-.045.688-.477 1.6-.36.38.05.73-.22.77-.6a.682.682 0 0 0-.6-.77c-1.507-.18-2.556.607-2.6.64-.3.23-.36.66-.13.96Z"/><path fill="#D37034" fill-rule="evenodd" d="M14.866 12.121a.35.35 0 0 1 .078.49c-.385.53-1.01.865-1.714.865a2.136 2.136 0 0 1-1.71-.86.35.35 0 1 1 .56-.422c.268.356.686.58 1.15.58.476 0 .891-.225 1.146-.575a.35.35 0 0 1 .49-.078Z" clip-rule="evenodd"/><path fill="#990839" d="M18.13 17.915c-.46-.7-1.25-1.17-2.15-1.17-.9 0-1.69.47-2.15 1.17-.1.15.04.33.2.31h3.89c.16.04.31-.15.21-.31Z"/><path fill="#D67D00" d="M23.19 18.055a8.2 8.2 0 0 1 .5-2.19c.4-1.02.83-1.8.83-1.81a.967.967 0 0 0-.37-1.31.967.967 0 0 0-1.31.37c-.02.04-.28.51-.59 1.2-.04.1-.18.09-.21-.01-.47-1.44-.73-3.25-.79-4a.868.868 0 0 0-.95-.79c-.48.04-.84.47-.79.95 0 .04.09 1.01.32 2.21.03.14.05.27.08.4.01.04-.02.08-.06.08-.03 0-.06-.02-.07-.05-.48-1.64-.7-3.05-.7-3.08a.866.866 0 0 0-1-.73c-.48.07-.81.52-.73 1 .01.07.3 1.53.65 2.91.01.03-.04.05-.05.02l-.8-2.02a.899.899 0 0 0-1.15-.47c-.45.19-.65.73-.46 1.18l.95 2.2c.03.06-.06.11-.1.05l-.56-1.07a.874.874 0 1 0-1.55.81c.99 1.89 2.6 4.97 2.8 5.38.01.02.02.03.03.04.34.63.89 1.15 1.6 1.44 1.64.69 3.54-.08 4.24-1.72.13-.33.21-.66.24-.99Z"/><path fill="#0092E7" d="m23.35 21.325-4.8 1.29-.31-1.15c-.07-.25.08-.5.33-.57l3.9-1.04c.25-.07.5.08.57.33l.31 1.14Z"/><path fill="#3BC6F6" d="M19.28 30h7.66l-2.33-8.715a.796.796 0 0 0-.97-.56l-5.61 1.5c-.42.11-.67.55-.56.97L19.28 30Z"/></svg>
